img/why-we/icon.svg

<svg width="34" height="34" viewBox="0 0 34 34" fill="none" xmlns="http://www.w3.org/2000/svg">
<path d="M32.9784 27.315L27.1005 16.4227C27.7002 15.0588 28.0356 13.5521 28.0356 11.9659C28.0356 5.85439 23.0919 0.900391 16.993 0.900391C10.8932 0.900391 5.94945 5.8554 5.94945 11.9659C5.94945 13.5904 6.302 15.1313 6.92775 16.5193L1.02377 27.31C0.832933 27.6572 0.865075 28.085 1.10312 28.401C1.34117 28.7171 1.74394 28.865 2.12964 28.7744L7.17082 27.616L8.89642 32.4321C9.03101 32.8065 9.37251 33.0662 9.76725 33.0954C9.79236 33.0974 9.81747 33.0984 9.84158 33.0984C10.2092 33.0984 10.5507 32.8961 10.7265 32.568L15.8651 22.976C16.2357 23.0142 16.6124 23.0334 16.993 23.0334C17.3416 23.0334 17.6861 23.0152 18.0266 22.983L23.2767 32.577C23.4545 32.9021 23.793 33.1004 24.1576 33.1004C24.1837 33.1004 24.2098 33.0994 24.2359 33.0974C24.6297 33.0652 24.9691 32.8065 25.1027 32.4341L26.8283 27.618L31.8705 28.7765C32.2572 28.8701 32.656 28.7191 32.895 28.4051C33.1341 28.091 33.1662 27.6653 32.9794 27.317L32.9784 27.315ZM10.0254 29.6229L8.76183 26.0951C8.58907 25.615 8.08786 25.3362 7.59168 25.454L3.86327 26.3115L8.11297 18.5434C9.51213 20.4386 11.5009 21.8678 13.808 22.5633L10.0254 29.6229ZM7.96733 11.9659C7.96733 6.97865 12.0172 2.92145 16.993 2.92145C21.9689 2.92145 26.0178 6.97865 26.0178 11.9659C26.0178 16.9531 21.9689 21.0103 16.992 21.0103C12.0151 21.0103 7.96733 16.9521 7.96733 11.9659ZM26.4085 25.454C25.9103 25.3362 25.4111 25.615 25.2383 26.0941L23.9657 29.6471L20.0997 22.5845C22.4671 21.889 24.5051 20.4225 25.9223 18.4729L30.155 26.3146L26.4085 25.454Z" fill="#FBD8D5"/>
</svg>

<svg width="34" height="34" fill="none" xmlns="http://www.w3.org/2000/svg"><path d="M32.978 27.315L27.1 16.423c.6-1.364.936-2.87.936-4.457C28.036 5.854 23.092.9 16.993.9c-6.1 0-11.044 4.955-11.044 11.066 0 1.624.353 3.165.979 4.553L1.024 27.31c-.191.347-.159.775.08 1.091a1 1 0 001.026.373l5.04-1.158 1.726 4.816a1.005 1.005 0 001.83.136l5.14-9.592a11.004 11.004 0 002.16.007l5.25 9.594a1.004 1.004 0 001.827-.143l1.725-4.816 5.043 1.159a.994.994 0 001.024-.372c.24-.314.271-.74.084-1.088v-.002zm-22.953 2.308l-1.263-3.528a1 1 0 00-1.17-.641l-3.729.857 4.25-7.768a11.053 11.053 0 005.695 4.02l-3.783 7.06zM7.967 11.966c0-4.987 4.05-9.045 9.026-9.045s9.025 4.058 9.025 9.045-4.05 9.044-9.026 9.044c-4.977 0-9.025-4.058-9.025-9.044zm18.441 13.488a1 1 0 00-1.17.64l-1.272 3.553-3.866-7.063a11.064 11.064 0 005.822-4.111l4.233 7.842-3.747-.861z" fill="#FBD8D5"/></svg>
